X: 39586
T: Teelin, The
R: reel
M: 4/4
K: Amixolydian
A2eg fdeA|(3Bcd ef gfgA|A2eg fdfa|gedg eA~A2:|
a2eg fdgf|eA (3cBA (3Bcd eg|a2eg fdfa|gedg eA~A2:|

